src/assets/icons/thumbs-up-fill.svg

<svg width="14" height="14" viewBox="0 0 14 14" fill="none" xmlns="http://www.w3.org/2000/svg">
<g id="thumbs-up-fill">
<g clip-path="url(#clip0_156_4705)">
<path id="Vector" fill-rule="evenodd" clip-rule="evenodd" d="M12.8263 12.915L13.982 6.35251C14.1134 5.54751 13.5092 4.8125 12.6863 4.8125H8.50128V1.75C8.50128 0.7875 7.72207 0 6.759 0H6.6802C6.33 0 6.01481 0.209987 5.87473 0.533737L3.47581 6.125V14H11.5306C12.1697 14 12.7125 13.545 12.8263 12.915ZM2.82792 14V6.125H1.41834C0.639128 6.125 0 6.76375 0 7.5425V12.5913C0 13.37 0.630373 14 1.41834 14H2.82792Z" fill="black"/>
</g>
</g>
<defs>
<clipPath id="clip0_156_4705">
<rect width="14" height="14" fill="white"/>
</clipPath>
</defs>
</svg>

<svg xmlns="http://www.w3.org/2000/svg" fill="none" viewBox="0 0 14 14"><g clip-path="url(#a)"><path fill="#000" fill-rule="evenodd" d="m12.826 12.915 1.156-6.562a1.316 1.316 0 0 0-1.296-1.54H8.501V1.75C8.501.788 7.722 0 6.76 0H6.68c-.35 0-.665.21-.805.534l-2.4 5.591V14h8.056c.639 0 1.181-.455 1.295-1.085M2.828 14V6.125h-1.41C.64 6.125 0 6.764 0 7.543v5.048C0 13.37.63 14 1.418 14z" clip-rule="evenodd"/></g><defs><clipPath id="a"><path fill="#fff" d="M0 0h14v14H0z"/></clipPath></defs></svg>
